X: 1
T: the Shepherd's Wife
M: 6/8
L: 1/8
R: air, jig
B: William Napier - Selection of Scots Songs, vol. 3 (1794, p. 29)
Z: AK/Fiddler's Companion
K: G
D |\
G2A B2c | d2g gfd | efg dcB | ABG GFD |\
G2A B2c | d2g gfd | deg agf | g3 G2 :|
|: g |\
b>c'b agf | g>ag fed | e>fg dcB | GAG F2D |\
b>c'b agf | g>ag fed | e>fg agf | g3 G2 :|
